src/images/notification_icon.svg

<svg width="25" height="25" viewBox="0 0 25 25" fill="none" xmlns="http://www.w3.org/2000/svg">
<path d="M11.442 25C9.289 25 7.53577 23.2479 7.53577 21.0938C7.53577 20.6625 7.88577 20.3125 8.31702 20.3125C8.74827 20.3125 9.09827 20.6625 9.09827 21.0938C9.09827 22.3866 10.1504 23.4375 11.442 23.4375C12.7337 23.4375 13.7858 22.3866 13.7858 21.0938C13.7858 20.6625 14.1358 20.3125 14.567 20.3125C14.9983 20.3125 15.3483 20.6625 15.3483 21.0938C15.3483 23.2479 13.5952 25 11.442 25Z" fill="#FE5C73"/>
<path d="M20.0357 21.875H2.84824C1.84307 21.875 1.02539 21.0573 1.02539 20.0521C1.02539 19.5187 1.25771 19.0136 1.66283 18.6666C1.68896 18.6438 1.717 18.623 1.74618 18.6041C3.2753 17.2697 4.15039 15.35 4.15039 13.3228V10.4166C4.15039 6.39591 7.42226 3.125 11.442 3.125C11.6087 3.125 11.7889 3.12805 11.9556 3.15628C12.3816 3.22704 12.6692 3.63026 12.5982 4.05521C12.5275 4.48017 12.117 4.7678 11.6993 4.69685C11.6159 4.6833 11.5244 4.6875 11.442 4.6875C8.28381 4.6875 5.71289 7.25727 5.71289 10.4166V13.3228C5.71289 15.8396 4.60968 18.2209 2.68898 19.8551C2.67334 19.8677 2.6598 19.8792 2.64301 19.8906C2.61497 19.9261 2.58789 19.9802 2.58789 20.0521C2.58789 20.1937 2.70672 20.3125 2.84824 20.3125H20.0357C20.1775 20.3125 20.2963 20.1937 20.2963 20.0521C20.2963 19.9791 20.2692 19.9261 20.24 19.8906C20.2244 19.8792 20.2108 19.8677 20.1952 19.8551C18.2734 18.2198 17.1713 15.8396 17.1713 13.3228V12.1876C17.1713 11.7563 17.5213 11.4063 17.9525 11.4063C18.3838 11.4063 18.7338 11.7563 18.7338 12.1876V13.3228C18.7338 15.3511 19.6098 17.2718 21.1411 18.6073C21.1691 18.626 21.1962 18.6459 21.2212 18.6678C21.6265 19.0136 21.8588 19.5187 21.8588 20.0521C21.8588 21.0573 21.0411 21.875 20.0357 21.875Z" fill="#FE5C73"/>
<path d="M18.7338 10.4166C15.8619 10.4166 13.5254 8.08029 13.5254 5.2084C13.5254 2.3365 15.8619 0 18.7338 0C21.6057 0 23.942 2.3365 23.942 5.2084C23.942 8.08029 21.6057 10.4166 18.7338 10.4166ZM18.7338 1.5625C16.7233 1.5625 15.0879 3.19786 15.0879 5.2084C15.0879 7.21874 16.7233 8.8541 18.7338 8.8541C20.7441 8.8541 22.3795 7.21874 22.3795 5.2084C22.3795 3.19786 20.7441 1.5625 18.7338 1.5625Z" fill="#FE5C73"/>
</svg>

<svg xmlns="http://www.w3.org/2000/svg" width="25" height="25" fill="none"><path fill="#FE5C73" d="M11.442 25a3.911 3.911 0 0 1-3.906-3.906.782.782 0 0 1 1.562 0 2.347 2.347 0 0 0 2.344 2.343 2.347 2.347 0 0 0 2.344-2.343.782.782 0 0 1 1.562 0A3.911 3.911 0 0 1 11.442 25Z"/><path fill="#FE5C73" d="M20.036 21.875H2.848a1.825 1.825 0 0 1-1.185-3.208.732.732 0 0 1 .083-.063 7 7 0 0 0 2.404-5.281v-2.906c0-4.021 3.272-7.292 7.292-7.292.167 0 .347.003.514.031a.781.781 0 1 1-.257 1.54c-.083-.013-.175-.008-.257-.008a5.736 5.736 0 0 0-5.73 5.729v2.906a8.567 8.567 0 0 1-3.023 6.532l-.046.036a.258.258 0 0 0-.055.161c0 .142.119.26.26.26h17.188c.141 0 .26-.118.26-.26a.249.249 0 0 0-.056-.161l-.045-.036a8.565 8.565 0 0 1-3.024-6.532v-1.135a.782.782 0 0 1 1.563 0v1.135c0 2.028.876 3.949 2.407 5.284a.77.77 0 0 1 .08.06 1.825 1.825 0 0 1-1.186 3.207Z"/><path fill="#FE5C73" d="M18.734 10.417a5.214 5.214 0 0 1-5.209-5.209A5.214 5.214 0 0 1 18.734 0a5.214 5.214 0 0 1 5.208 5.208 5.214 5.214 0 0 1-5.208 5.209Zm0-8.854a3.65 3.65 0 0 0-3.646 3.645 3.65 3.65 0 0 0 3.646 3.646 3.65 3.65 0 0 0 3.645-3.646 3.65 3.65 0 0 0-3.645-3.646Z"/></svg>
